exports/healthy-life-expectancy-and-years-lived-with-disability_v3_850x600.svg

<svg xmlns="http://www.w3.org/2000/svg" version="1.1" style="background-color:#fff;-webkit-font-smoothing:antialiased" width="850" height="600" font-family="'Helvetica Neue',Helvetica,Arial,sans-serif" font-size="18" text-rendering="optimizeLegibility"><g class="ChartTab"><g class="HeaderView"><g opacity=".8" transform="matrix(.27 0 0 .27 778 15)"><a xmlns:xlink="http://www.w3.org/1999/xlink" xlink:href="https://ourworldindata.org" target="_blank"><g><path fill="#1B2543" d="M0 0h211.2v130.1H0z"/><path fill="#E63912" d="M0 112.2h211.2v17.9H0z"/><g><path fill="none" d="M1.2 12.3h210.2v99.2H1.2z"/><path fill="#FFF" d="M37.8 32.2c0 12.7-7.7 19.4-17.1 19.4-9.7 0-16.6-7.5-16.6-18.7 0-11.7 7.3-19.3 17.1-19.3 10.1.1 16.6 7.7 16.6 18.6zm-28.6.6c0 7.9 4.3 14.9 11.8 14.9 7.5 0 11.8-6.9 11.8-15.3 0-7.3-3.8-14.9-11.8-14.9-7.9 0-11.8 7.3-11.8 15.3zM62.7 43.8c0 2.7.1 5.1.2 7.2h-4.3l-.3-4.3h-.1c-1.3 2.1-4 4.9-8.8 4.9-4.2 0-9.1-2.3-9.1-11.6V24.6h4.8v14.6c0 5 1.5 8.4 5.9 8.4 3.2 0 5.5-2.2 6.3-4.4.3-.7.4-1.6.4-2.5V24.6h4.8v19.2zM67.3 32.8c0-3.1-.1-5.8-.2-8.2h4.2l.2 5.2h.2c1.2-3.5 4.1-5.8 7.3-5.8.5 0 .9.1 1.4.2v4.5c-.5-.1-1-.2-1.6-.2-3.4 0-5.8 2.6-6.5 6.2-.1.7-.2 1.4-.2 2.2V51h-4.8V32.8zM95.4 51L86 14.2h5l4.4 18.6c1.1 4.6 2.1 9.2 2.7 12.7h.1c.6-3.7 1.8-8 3-12.8l4.9-18.5h5l4.5 18.7c1 4.4 2 8.7 2.6 12.6h.1c.8-4 1.8-8.1 3-12.7l4.9-18.5h4.9L120.6 51h-5L111 31.9c-1.1-4.7-1.9-8.3-2.4-12h-.1c-.7 3.7-1.5 7.3-2.8 12L100.4 51h-5zM154.9 37.6c0 9.8-6.8 14-13.2 14-7.2 0-12.7-5.2-12.7-13.6 0-8.8 5.8-14 13.1-14 7.7 0 12.8 5.5 12.8 13.6zm-21 .3c0 5.8 3.3 10.1 8 10.1 4.6 0 8-4.3 8-10.3 0-4.5-2.2-10.1-7.9-10.1s-8.1 5.2-8.1 10.3zM158.2 32.8c0-3.1-.1-5.8-.2-8.2h4.2l.2 5.2h.2c1.2-3.5 4.1-5.8 7.3-5.8.5 0 .9.1 1.4.2v4.5c-.5-.1-1-.2-1.6-.2-3.4 0-5.8 2.6-6.5 6.2-.1.7-.2 1.4-.2 2.2V51h-4.8V32.8zM173.5 12.3h4.8V51h-4.8V12.3zM206.5 12.3v31.9c0 2.3.1 5 .2 6.8h-4.3l-.2-4.6h-.2c-1.5 2.9-4.7 5.2-9 5.2-6.4 0-11.3-5.4-11.3-13.4-.1-8.8 5.4-14.2 11.9-14.2 4 0 6.8 1.9 8 4h.1V12.3h4.8zm-4.8 23.1c0-.6-.1-1.4-.2-2a7 7 0 00-6.9-5.6c-5 0-7.9 4.4-7.9 10.2 0 5.3 2.6 9.8 7.8 9.8 3.2 0 6.2-2.1 7.1-5.7.2-.7.2-1.3.2-2.1v-4.6zM42.8 64c.1 1.6-1.1 2.9-3.1 2.9-1.7 0-2.9-1.3-2.9-2.9 0-1.7 1.3-3 3-3 1.9 0 3 1.3 3 3zm-5.4 33.8V71.4h4.8v26.4h-4.8zM47.5 78.6c0-2.7-.1-5-.2-7.1h4.3l.3 4.4h.1c1.3-2.5 4.4-5 8.8-5 3.7 0 9.4 2.2 9.4 11.2v15.8h-4.8V82.6c0-4.3-1.6-7.8-6.1-7.8-3.2 0-5.6 2.2-6.5 4.9-.2.6-.3 1.4-.3 2.2v15.9h-4.8V78.6zM84 61.6c2.9-.4 6.3-.8 10.1-.8 6.8 0 11.7 1.6 14.9 4.6 3.3 3 5.2 7.3 5.2 13.2 0 6-1.9 10.9-5.3 14.3-3.4 3.4-9.1 5.3-16.3 5.3-3.4 0-6.2-.2-8.6-.4V61.6zm4.8 32.5c1.2.2 3 .3 4.8.3 10.2 0 15.7-5.7 15.7-15.6.1-8.7-4.9-14.2-14.9-14.2-2.5 0-4.3.2-5.6.5v29zM132.1 97.8l-.4-3.3h-.2a9.79 9.79 0 01-8.1 3.9c-5.4 0-8.1-3.8-8.1-7.6 0-6.4 5.7-9.9 15.9-9.8v-.5c0-2.2-.6-6.1-6-6.1-2.5 0-5 .8-6.9 2l-1.1-3.2c2.2-1.4 5.4-2.3 8.7-2.3 8.1 0 10.1 5.5 10.1 10.8v9.9c0 2.3.1 4.5.4 6.3h-4.3zm-.7-13.4c-5.3-.1-11.2.8-11.2 5.9 0 3.1 2.1 4.6 4.5 4.6 3.4 0 5.6-2.2 6.4-4.4.2-.5.3-1 .3-1.5v-4.6zM146.6 63.9v7.6h6.9v3.7h-6.9v14.2c0 3.3.9 5.1 3.6 5.1 1.3 0 2.2-.2 2.8-.3l.2 3.6c-.9.4-2.4.7-4.3.7-2.2 0-4-.7-5.2-2-1.4-1.4-1.9-3.8-1.9-6.9V75.1h-4.1v-3.7h4.1v-6.3l4.8-1.2zM171.4 97.8l-.4-3.3h-.2a9.79 9.79 0 01-8.1 3.9c-5.4 0-8.1-3.8-8.1-7.6 0-6.4 5.7-9.9 15.9-9.8v-.5c0-2.2-.6-6.1-6-6.1-2.5 0-5 .8-6.9 2l-1.1-3.2c2.2-1.4 5.4-2.3 8.7-2.3 8.1 0 10.1 5.5 10.1 10.8v9.9c0 2.3.1 4.5.4 6.3h-4.3zm-.7-13.4c-5.3-.1-11.2.8-11.2 5.9 0 3.1 2.1 4.6 4.5 4.6 3.4 0 5.6-2.2 6.4-4.4.2-.5.3-1 .3-1.5v-4.6z"/></g></g></a></g><a href="https://ourworldindata.org/grapher/healthy-life-expectancy-and-years-lived-with-disability" target="_blank"><text font-size="27" x="15" y="36.6" fill="#555"><tspan x="15" y="36.6">Healthy life expectancy and years lived with disability, World</tspan></text></a><text font-size="14.4" x="15" y="55.5" fill="#666"><tspan x="15" y="55.52">Average life expectancy of an individual born in a given year, disaggregated into the expected number of healthy</tspan><tspan x="15" y="71.36">years, and the number lived with disability or disease burden.</tspan></text></g><g class="StackedArea"><defs><clipPath id="a"><path d="M38.14 0h820v925.2h-820z"/></clipPath></defs><g class="AxisBoxView"><g class="HorizontalAxis" fill="#666" text-anchor="middle" font-size="16.2"><text x="38.1" y="556.5">1990</text><text x="166.5" y="556.5">1995</text><text x="295" y="556.5">2000</text><text x="423.4" y="556.5">2005</text><text x="551.8" y="556.5">2010</text><text x="705.8" y="556.5">2016</text></g><g class="VerticalAxis" fill="#666" dominant-baseline="middle" text-anchor="end" font-size="16.2"><text x="33.14" y="535.3">0</text><text x="33.14" y="474.4">10</text><text x="33.14" y="413.5">20</text><text x="33.14" y="352.6">30</text><text x="33.14" y="291.7">40</text><text x="33.14" y="230.8">50</text><text x="33.14" y="169.9">60</text><text x="33.14" y="109">70</text></g><g class="AxisGridLines"><path stroke="#ccc" d="M38.14 535.3h667.71"/><path stroke="#ddd" stroke-dasharray="3,2" d="M38.14 474.4h667.71M38.14 413.5h667.71M38.14 352.6h667.71M38.14 291.7h667.71M38.14 230.8h667.71M38.14 169.9h667.71M38.14 109h667.71"/></g><g class="AxisGridLines" stroke="#ddd" stroke-dasharray="3,2"><path d="M38.1 535.3V93.9M166.5 535.3V93.9M295 535.3V93.9M423.4 535.3V93.9M551.8 535.3V93.9M680.2 535.3V93.9"/></g></g><g clip-path="url(#a)"><g class="HeightedLegend clickable"><g class="legendMark"><path fill="#e6332e" d="M710.85 121.15h10v2.5h-10z"/><text font-size="14.4" x="725.8" y="119" fill="#333"><tspan x="725.85" y="118.97">Years Lived With</tspan><tspan x="725.85" y="134.81">Disability</tspan></text></g><g class="legendMark"><path fill="#3360a9" d="M710.85 341.85h10v2.5h-10z"/><text font-size="14.4" x="725.8" y="339.7" fill="#333"><tspan x="725.85" y="339.67">Healthy Life</tspan><tspan x="725.85" y="355.51">Expectancy</tspan></text></g></g><g class="Areas"><path d="M38.1 188.9l25.7-.8 25.7-1.1 25.7-.2 25.7.7 25.6-1.9 25.7-1.4 25.7-1.4 25.7-1.1 25.7-.8 25.7-1.1 25.6-1.4 25.7-1.3 25.7-1.7 25.7-1.5 25.7-2 25.6-2.5 25.7-2 25.7-1.6 25.7-2.4 25.7-1.5 25.6-2.4 25.7-1.9 25.7-1.8 25.7-1.5 25.7-1.6 25.6-1.8.05 384.4H38.15" fill="#3360a9" fill-opacity=".7" class="World_0-area"/><path d="M38.1 138.8l25.7-.7 25.7-1.2 25.7-.1 25.7.8 25.6-2.3 25.7-1.6 25.7-1.7 25.7-1.3 25.7-.9 25.7-1.4 25.6-1.6 25.7-1.4 25.7-2.1 25.7-1.9 25.7-2.4 25.6-2.9 25.7-2.5 25.7-2 25.7-3 25.7-1.6 25.6-3.1 25.7-2.2 25.7-2.1 25.7-1.9 25.7-2 25.6-1.8v57l-25.6 1.8-25.7 1.6-25.7 1.5-25.7 1.8-25.7 1.9-25.6 2.4-25.7 1.5-25.7 2.4-25.7 1.6-25.7 2-25.6 2.5-25.7 2-25.7 1.5-25.7 1.7-25.7 1.3-25.6 1.4-25.7 1.1-25.7.8-25.7 1.1-25.7 1.4-25.7 1.4-25.6 1.9-25.7-.7-25.7.2-25.7 1.1-25.7.8" fill="#e6332e" fill-opacity=".7" class="World_1-area"/><path stroke-linecap="round" d="M38.1 188.9l25.7-.8 25.7-1.1 25.7-.2 25.7.7 25.6-1.9 25.7-1.4 25.7-1.4 25.7-1.1 25.7-.8 25.7-1.1 25.6-1.4 25.7-1.3 25.7-1.7 25.7-1.5 25.7-2 25.6-2.5 25.7-2 25.7-1.6 25.7-2.4 25.7-1.5 25.6-2.4 25.7-1.9 25.7-1.8 25.7-1.5 25.7-1.6 25.6-1.8" stroke="#2B508D" stroke-opacity=".7" stroke-width=".5" fill="none" class="World_0-border"/><path stroke-linecap="round" d="M38.1 138.8l25.7-.7 25.7-1.2 25.7-.1 25.7.8 25.6-2.3 25.7-1.6 25.7-1.7 25.7-1.3 25.7-.9 25.7-1.4 25.6-1.6 25.7-1.4 25.7-2.1 25.7-1.9 25.7-2.4 25.6-2.9 25.7-2.5 25.7-2 25.7-3 25.7-1.6 25.6-3.1 25.7-2.2 25.7-2.1 25.7-1.9 25.7-2 25.6-1.8" stroke="#C02B26" stroke-opacity=".7" stroke-width=".5" fill="none" class="World_1-border"/></g></g></g><g class="SourcesFooter" fill="#777"><g class="clickable" fill="#777"><text font-size="12.6" x="15" y="581.6"><tspan x="15" y="581.58">Source: IHME, Global Burden of Disease</tspan></text></g><text font-size="12.6" x="649" y="581.6"><tspan x="649.02" y="581.58"><a target="_blank" href="https://ourworldindata.org" fill="#777">OurWorldInData.org</a> • <a href="http://creativecommons.org/licenses/by-sa/4.0/deed.en_US" target="_blank" fill="#777">CC BY-SA</a></tspan></text></g></g></svg>

<svg xmlns="http://www.w3.org/2000/svg" version="1.1" style="font-family: 'Helvetica Neue', Helvetica, Arial, sans-serif; font-size: 18px; background-color: white; text-rendering: optimizeLegibility; -webkit-font-smoothing: antialiased;" width="850" height="600"><g class="ChartTab"><g class="HeaderView"><g opacity="0.8" transform="translate(778, 15) scale(0.27)"><a xmlns:xlink="http://www.w3.org/1999/xlink" xlink:href="https://ourworldindata.org" target="_blank"><g><rect x="0" y="0" fill="#1B2543" width="211.2" height="130.1"/><rect x="0" y="112.2" fill="#E63912" width="211.2" height="17.9"/><g><rect x="1.2" y="12.3" fill="none" width="210.2" height="99.2"/><path fill="#FFFFFF" d="M37.8,32.2c0,12.7-7.7,19.4-17.1,19.4c-9.7,0-16.6-7.5-16.6-18.7c0-11.7,7.3-19.3,17.1-19.3 C31.3,13.7,37.8,21.3,37.8,32.2z M9.2,32.8c0,7.9,4.3,14.9,11.8,14.9c7.5,0,11.8-6.9,11.8-15.3c0-7.3-3.8-14.9-11.8-14.9 C13.1,17.5,9.2,24.8,9.2,32.8z"/><path fill="#FFFFFF" d="M62.7,43.8c0,2.7,0.1,5.1,0.2,7.2h-4.3l-0.3-4.3h-0.1c-1.3,2.1-4,4.9-8.8,4.9c-4.2,0-9.1-2.3-9.1-11.6 V24.6h4.8v14.6c0,5,1.5,8.4,5.9,8.4c3.2,0,5.5-2.2,6.3-4.4c0.3-0.7,0.4-1.6,0.4-2.5V24.6h4.8V43.8z"/><path fill="#FFFFFF" d="M67.3,32.8c0-3.1-0.1-5.8-0.2-8.2h4.2l0.2,5.2h0.2c1.2-3.5,4.1-5.8,7.3-5.8c0.5,0,0.9,0.1,1.4,0.2v4.5 c-0.5-0.1-1-0.2-1.6-0.2c-3.4,0-5.8,2.6-6.5,6.2c-0.1,0.7-0.2,1.4-0.2,2.2V51h-4.8V32.8z"/><path fill="#FFFFFF" d="M95.4,51l-9.4-36.8h5l4.4,18.6c1.1,4.6,2.1,9.2,2.7,12.7h0.1c0.6-3.7,1.8-8,3-12.8l4.9-18.5h5l4.5,18.7 c1,4.4,2,8.7,2.6,12.6h0.1c0.8-4,1.8-8.1,3-12.7l4.9-18.5h4.9L120.6,51h-5L111,31.9c-1.1-4.7-1.9-8.3-2.4-12h-0.1 c-0.7,3.7-1.5,7.3-2.8,12L100.4,51H95.4z"/><path fill="#FFFFFF" d="M154.9,37.6c0,9.8-6.8,14-13.2,14c-7.2,0-12.7-5.2-12.7-13.6c0-8.8,5.8-14,13.1-14 C149.8,24,154.9,29.5,154.9,37.6z M133.9,37.9c0,5.8,3.3,10.1,8,10.1c4.6,0,8-4.3,8-10.3c0-4.5-2.2-10.1-7.9-10.1 C136.3,27.6,133.9,32.8,133.9,37.9z"/><path fill="#FFFFFF" d="M158.2,32.8c0-3.1-0.1-5.8-0.2-8.2h4.2l0.2,5.2h0.2c1.2-3.5,4.1-5.8,7.3-5.8c0.5,0,0.9,0.1,1.4,0.2v4.5 c-0.5-0.1-1-0.2-1.6-0.2c-3.4,0-5.8,2.6-6.5,6.2c-0.1,0.7-0.2,1.4-0.2,2.2V51h-4.8V32.8z"/><path fill="#FFFFFF" d="M173.5,12.3h4.8V51h-4.8V12.3z"/><path fill="#FFFFFF" d="M206.5,12.3v31.9c0,2.3,0.1,5,0.2,6.8h-4.3l-0.2-4.6H202c-1.5,2.9-4.7,5.2-9,5.2 c-6.4,0-11.3-5.4-11.3-13.4c-0.1-8.8,5.4-14.2,11.9-14.2c4,0,6.8,1.9,8,4h0.1V12.3H206.5z M201.7,35.4c0-0.6-0.1-1.4-0.2-2 c-0.7-3.1-3.3-5.6-6.9-5.6c-5,0-7.9,4.4-7.9,10.2c0,5.3,2.6,9.8,7.8,9.8c3.2,0,6.2-2.1,7.1-5.7c0.2-0.7,0.2-1.3,0.2-2.1V35.4z"/><path fill="#FFFFFF" d="M42.8,64c0.1,1.6-1.1,2.9-3.1,2.9c-1.7,0-2.9-1.3-2.9-2.9c0-1.7,1.3-3,3-3C41.7,61,42.8,62.3,42.8,64z M37.4,97.8V71.4h4.8v26.4H37.4z"/><path fill="#FFFFFF" d="M47.5,78.6c0-2.7-0.1-5-0.2-7.1h4.3l0.3,4.4h0.1c1.3-2.5,4.4-5,8.8-5c3.7,0,9.4,2.2,9.4,11.2v15.8h-4.8 V82.6c0-4.3-1.6-7.8-6.1-7.8c-3.2,0-5.6,2.2-6.5,4.9c-0.2,0.6-0.3,1.4-0.3,2.2v15.9h-4.8V78.6z"/><path fill="#FFFFFF" d="M84,61.6c2.9-0.4,6.3-0.8,10.1-0.8c6.8,0,11.7,1.6,14.9,4.6c3.3,3,5.2,7.3,5.2,13.2c0,6-1.9,10.9-5.3,14.3 c-3.4,3.4-9.1,5.3-16.3,5.3c-3.4,0-6.2-0.2-8.6-0.4V61.6z M88.8,94.1c1.2,0.2,3,0.3,4.8,0.3c10.2,0,15.7-5.7,15.7-15.6 c0.1-8.7-4.9-14.2-14.9-14.2c-2.5,0-4.3,0.2-5.6,0.5V94.1z"/><path fill="#FFFFFF" d="M132.1,97.8l-0.4-3.3h-0.2c-1.5,2.1-4.3,3.9-8.1,3.9c-5.4,0-8.1-3.8-8.1-7.6c0-6.4,5.7-9.9,15.9-9.8v-0.5 c0-2.2-0.6-6.1-6-6.1c-2.5,0-5,0.8-6.9,2l-1.1-3.2c2.2-1.4,5.4-2.3,8.7-2.3c8.1,0,10.1,5.5,10.1,10.8v9.9c0,2.3,0.1,4.5,0.4,6.3 H132.1z M131.4,84.4c-5.3-0.1-11.2,0.8-11.2,5.9c0,3.1,2.1,4.6,4.5,4.6c3.4,0,5.6-2.2,6.4-4.4c0.2-0.5,0.3-1,0.3-1.5V84.4z"/><path fill="#FFFFFF" d="M146.6,63.9v7.6h6.9v3.7h-6.9v14.2c0,3.3,0.9,5.1,3.6,5.1c1.3,0,2.2-0.2,2.8-0.3l0.2,3.6 c-0.9,0.4-2.4,0.7-4.3,0.7c-2.2,0-4-0.7-5.2-2c-1.4-1.4-1.9-3.8-1.9-6.9V75.1h-4.1v-3.7h4.1v-6.3L146.6,63.9z"/><path fill="#FFFFFF" d="M171.4,97.8l-0.4-3.3h-0.2c-1.5,2.1-4.3,3.9-8.1,3.9c-5.4,0-8.1-3.8-8.1-7.6c0-6.4,5.7-9.9,15.9-9.8v-0.5 c0-2.2-0.6-6.1-6-6.1c-2.5,0-5,0.8-6.9,2l-1.1-3.2c2.2-1.4,5.4-2.3,8.7-2.3c8.1,0,10.1,5.5,10.1,10.8v9.9c0,2.3,0.1,4.5,0.4,6.3 H171.4z M170.7,84.4c-5.3-0.1-11.2,0.8-11.2,5.9c0,3.1,2.1,4.6,4.5,4.6c3.4,0,5.6-2.2,6.4-4.4c0.2-0.5,0.3-1,0.3-1.5V84.4z"/></g></g></a></g><a href="https://ourworldindata.org/grapher/healthy-life-expectancy-and-years-lived-with-disability" target="_blank"><text font-size="27.00" x="15.0" y="36.6" fill="#555"><tspan x="15" y="36.6">Healthy life expectancy and years lived with disability, World</tspan></text></a><text font-size="14.40" x="15.0" y="55.5" fill="#666"><tspan x="15" y="55.519999999999996">Average life expectancy of an individual born in a given year, disaggregated into the expected number of healthy</tspan><tspan x="15" y="71.36">years, and the number lived with disability or disease burden.</tspan></text></g><g class="StackedArea"><defs><clipPath id="boundsClip-1"><rect x="38.144000000000005" y="0" width="820" height="925.2"></rect></clipPath></defs><g class="AxisBoxView"><g class="HorizontalAxis"><text x="38.1" y="556.5" fill="#666" text-anchor="middle" font-size="16.2">1990</text><text x="166.5" y="556.5" fill="#666" text-anchor="middle" font-size="16.2">1995</text><text x="295" y="556.5" fill="#666" text-anchor="middle" font-size="16.2">2000</text><text x="423.4" y="556.5" fill="#666" text-anchor="middle" font-size="16.2">2005</text><text x="551.8" y="556.5" fill="#666" text-anchor="middle" font-size="16.2">2010</text><text x="705.8" y="556.5" fill="#666" text-anchor="middle" font-size="16.2">2016</text></g><g class="VerticalAxis"><text x="33.14" y="535.3" fill="#666" dominant-baseline="middle" text-anchor="end" font-size="16.2">0</text><text x="33.14" y="474.4" fill="#666" dominant-baseline="middle" text-anchor="end" font-size="16.2">10</text><text x="33.14" y="413.5" fill="#666" dominant-baseline="middle" text-anchor="end" font-size="16.2">20</text><text x="33.14" y="352.6" fill="#666" dominant-baseline="middle" text-anchor="end" font-size="16.2">30</text><text x="33.14" y="291.7" fill="#666" dominant-baseline="middle" text-anchor="end" font-size="16.2">40</text><text x="33.14" y="230.8" fill="#666" dominant-baseline="middle" text-anchor="end" font-size="16.2">50</text><text x="33.14" y="169.9" fill="#666" dominant-baseline="middle" text-anchor="end" font-size="16.2">60</text><text x="33.14" y="109" fill="#666" dominant-baseline="middle" text-anchor="end" font-size="16.2">70</text></g><g class="AxisGridLines"><line x1="38.14" y1="535.3" x2="705.85" y2="535.3" stroke="#ccc"></line><line x1="38.14" y1="474.4" x2="705.85" y2="474.4" stroke="#ddd" stroke-dasharray="3,2"></line><line x1="38.14" y1="413.5" x2="705.85" y2="413.5" stroke="#ddd" stroke-dasharray="3,2"></line><line x1="38.14" y1="352.6" x2="705.85" y2="352.6" stroke="#ddd" stroke-dasharray="3,2"></line><line x1="38.14" y1="291.7" x2="705.85" y2="291.7" stroke="#ddd" stroke-dasharray="3,2"></line><line x1="38.14" y1="230.8" x2="705.85" y2="230.8" stroke="#ddd" stroke-dasharray="3,2"></line><line x1="38.14" y1="169.9" x2="705.85" y2="169.9" stroke="#ddd" stroke-dasharray="3,2"></line><line x1="38.14" y1="109" x2="705.85" y2="109" stroke="#ddd" stroke-dasharray="3,2"></line></g><g class="AxisGridLines"><line x1="38.1" y1="535.30" x2="38.1" y2="93.90" stroke="#ddd" stroke-dasharray="3,2"></line><line x1="166.5" y1="535.30" x2="166.5" y2="93.90" stroke="#ddd" stroke-dasharray="3,2"></line><line x1="295" y1="535.30" x2="295" y2="93.90" stroke="#ddd" stroke-dasharray="3,2"></line><line x1="423.4" y1="535.30" x2="423.4" y2="93.90" stroke="#ddd" stroke-dasharray="3,2"></line><line x1="551.8" y1="535.30" x2="551.8" y2="93.90" stroke="#ddd" stroke-dasharray="3,2"></line><line x1="680.2" y1="535.30" x2="680.2" y2="93.90" stroke="#ddd" stroke-dasharray="3,2"></line></g></g><g clip-path="url(#boundsClip-1)"><g class="HeightedLegend clickable"><g class="legendMark"><rect x="710.848" y="107.45" width="124.15200000000002" height="29.900000000000002" fill="#fff" opacity="0"></rect><rect x="710.848" y="121.15" width="10" height="2.5" fill="#e6332e"></rect><text font-size="14.40" x="725.8" y="119.0" fill="#333"><tspan x="725.848" y="118.97000000000001">Years Lived With</tspan><tspan x="725.848" y="134.81">Disability</tspan></text></g><g class="legendMark"><rect x="710.848" y="328.15000000000003" width="91.32000000000001" height="29.900000000000002" fill="#fff" opacity="0"></rect><rect x="710.848" y="341.85" width="10" height="2.5" fill="#3360a9"></rect><text font-size="14.40" x="725.8" y="339.7" fill="#333"><tspan x="725.848" y="339.67">Healthy Life</tspan><tspan x="725.848" y="355.51">Expectancy</tspan></text></g></g><g class="Areas"><rect x="38.144000000000005" y="93.9" width="667.704" height="441.4000000000001" opacity="0" fill="rgba(255,255,255,0)"></rect><path stroke-linecap="round" d="M38.1 188.9L63.8 188.1L89.5 187L115.2 186.8L140.9 187.5L166.5 185.6L192.2 184.2L217.9 182.8L243.6 181.7L269.3 180.9L295 179.8L320.6 178.4L346.3 177.1L372 175.4L397.7 173.9L423.4 171.9L449 169.4L474.7 167.4L500.4 165.8L526.1 163.4L551.8 161.9L577.4 159.5L603.1 157.6L628.8 155.8L654.5 154.3L680.2 152.7L705.8 150.9L705.848 535.3000000000001L38.144000000000005 535.3000000000001" fill="#3360a9" fill-opacity="0.7" class="World_0-area"></path><path stroke-linecap="round" d="M38.1 138.8L63.8 138.1L89.5 136.9L115.2 136.8L140.9 137.6L166.5 135.3L192.2 133.7L217.9 132L243.6 130.7L269.3 129.8L295 128.4L320.6 126.8L346.3 125.4L372 123.3L397.7 121.4L423.4 119L449 116.1L474.7 113.6L500.4 111.6L526.1 108.6L551.8 107L577.4 103.9L603.1 101.7L628.8 99.6L654.5 97.7L680.2 95.7L705.8 93.9L705.8 150.9L680.2 152.7L654.5 154.3L628.8 155.8L603.1 157.6L577.4 159.5L551.8 161.9L526.1 163.4L500.4 165.8L474.7 167.4L449 169.4L423.4 171.9L397.7 173.9L372 175.4L346.3 177.1L320.6 178.4L295 179.8L269.3 180.9L243.6 181.7L217.9 182.8L192.2 184.2L166.5 185.6L140.9 187.5L115.2 186.8L89.5 187L63.8 188.1L38.1 188.9" fill="#e6332e" fill-opacity="0.7" class="World_1-area"></path><path stroke-linecap="round" d="M38.1 188.9L63.8 188.1L89.5 187L115.2 186.8L140.9 187.5L166.5 185.6L192.2 184.2L217.9 182.8L243.6 181.7L269.3 180.9L295 179.8L320.6 178.4L346.3 177.1L372 175.4L397.7 173.9L423.4 171.9L449 169.4L474.7 167.4L500.4 165.8L526.1 163.4L551.8 161.9L577.4 159.5L603.1 157.6L628.8 155.8L654.5 154.3L680.2 152.7L705.8 150.9" stroke="rgb(43, 80, 141)" stroke-opacity="0.7" stroke-width="0.5" fill="none" class="World_0-border"></path><path stroke-linecap="round" d="M38.1 138.8L63.8 138.1L89.5 136.9L115.2 136.8L140.9 137.6L166.5 135.3L192.2 133.7L217.9 132L243.6 130.7L269.3 129.8L295 128.4L320.6 126.8L346.3 125.4L372 123.3L397.7 121.4L423.4 119L449 116.1L474.7 113.6L500.4 111.6L526.1 108.6L551.8 107L577.4 103.9L603.1 101.7L628.8 99.6L654.5 97.7L680.2 95.7L705.8 93.9" stroke="rgb(192, 43, 38)" stroke-opacity="0.7" stroke-width="0.5" fill="none" class="World_1-border"></path></g></g></g><g style="fill: #777;" class="SourcesFooter"><g style="fill: #777;" class="clickable"><text font-size="12.60" x="15.0" y="581.6"><tspan x="15" y="581.58">Source: IHME, Global Burden of Disease</tspan></text></g><text font-size="12.60" x="649.0" y="581.6"><tspan x="649.024" y="581.58"><a target='_blank' style='fill: #777;' href='https://ourworldindata.org'>OurWorldInData.org</a> • <a style="fill: #777;" href="http://creativecommons.org/licenses/by-sa/4.0/deed.en_US" target="_blank">CC BY-SA</a></tspan></text></g></g></svg>
